public/img/assets/icons/weather-conditions/small/partly-cloudy-day.svg

<svg width="24" height="24" viewBox="0 0 24 24" fill="none" xmlns="http://www.w3.org/2000/svg">
<path d="M13.002 7.17562C16.171 7.17562 17.968 9.35972 18.23 11.9979H18.31C18.7942 11.9972 19.2739 12.0959 19.7215 12.2883C20.1692 12.4808 20.576 12.7631 20.9189 13.1194C21.2617 13.4756 21.5338 13.8987 21.7197 14.3644C21.9055 14.8302 22.0014 15.3295 22.002 15.8339C22.0013 16.3382 21.9053 16.8374 21.7194 17.3031C21.5335 17.7687 21.2614 18.1917 20.9185 18.5478C20.5757 18.9039 20.1689 19.1862 19.7213 19.3785C19.2737 19.5709 18.7941 19.6695 18.31 19.6688H7.69395C7.20977 19.6695 6.7302 19.5709 6.28262 19.3785C5.83504 19.1862 5.42822 18.9039 5.08539 18.5478C4.74255 18.1917 4.47042 17.7687 4.28452 17.3031C4.09863 16.8374 4.00261 16.3382 4.00195 15.8339C4.00248 15.3295 4.0984 14.8302 4.28424 14.3644C4.47007 13.8987 4.74218 13.4756 5.08503 13.1194C5.42788 12.7631 5.83474 12.4808 6.28239 12.2883C6.73003 12.0959 7.20969 11.9972 7.69395 11.9979H7.77395C8.03695 9.34201 9.83395 7.17562 13.002 7.17562Z" fill="#3FD5FE"/>
<path d="M4.36801 11.5032C4.43746 11.6777 4.44382 11.8726 4.3859 12.0517C4.32798 12.2307 4.20971 12.3818 4.05301 12.477L3.96201 12.5239L3.03601 12.9239C2.8605 12.9994 2.66402 13.0027 2.48621 12.9333C2.30841 12.8638 2.16253 12.7267 2.07801 12.5496C1.9935 12.3724 1.97663 12.1685 2.03082 11.979C2.08502 11.7894 2.20623 11.6283 2.37001 11.5282L2.46201 11.4803L3.38801 11.0814C3.57168 11.002 3.77809 11.0019 3.96186 11.081C4.14563 11.1601 4.29172 11.3119 4.36801 11.5032ZM10.855 6.46946L10.683 6.52987C8.89901 7.18604 7.62101 8.61815 7.06801 10.5117L6.99801 10.772L6.94001 11.0199L6.73401 11.0605C6.13574 11.1914 5.56821 11.4442 5.06401 11.8042C4.60568 10.9837 4.43448 10.0232 4.57954 9.086C4.7246 8.14884 5.17697 7.29299 5.85965 6.6641C6.54234 6.0352 7.41316 5.67211 8.32392 5.63663C9.23469 5.60114 10.1291 5.89545 10.855 6.46946ZM2.94001 6.50175L3.04601 6.5382L3.97201 6.93815C4.14613 7.01417 4.28632 7.1558 4.36459 7.33476C4.44285 7.51371 4.45344 7.71683 4.39422 7.90355C4.33501 8.09028 4.21036 8.24687 4.04516 8.34207C3.87995 8.43727 3.68635 8.46408 3.50301 8.41713L3.40001 8.38276L2.47401 7.98281C2.30035 7.90656 2.16061 7.76501 2.0826 7.58633C2.0046 7.40764 1.99404 7.20492 2.05303 7.01849C2.11202 6.83206 2.23624 6.6756 2.40096 6.58024C2.56569 6.48487 2.75885 6.45759 2.94201 6.50383L2.94001 6.50175ZM6.75501 3.39172L6.80101 3.4865L7.18401 4.45201C7.25548 4.63465 7.25798 4.83868 7.19099 5.02316C7.12401 5.20764 6.99251 5.35889 6.82289 5.44657C6.65326 5.53424 6.45808 5.55185 6.27651 5.49584C6.09494 5.43983 5.94044 5.31437 5.84401 5.14463L5.79801 5.04985L5.41501 4.08435C5.34354 3.90171 5.34104 3.69767 5.40802 3.51319C5.47501 3.32872 5.60651 3.17746 5.77613 3.08978C5.94575 3.00211 6.14094 2.98451 6.32251 3.04051C6.50407 3.09652 6.65858 3.22198 6.75501 3.39172ZM11.109 3.05947C11.275 3.13125 11.4108 3.26274 11.4916 3.43001C11.5723 3.59729 11.5927 3.7892 11.549 3.97082L11.514 4.08018L11.131 5.04568C11.058 5.22704 10.922 5.37305 10.7502 5.45457C10.5784 5.53608 10.3834 5.54711 10.2041 5.48543C10.0248 5.42376 9.87448 5.29393 9.78307 5.12187C9.69167 4.9498 9.66593 4.74816 9.71101 4.5572L9.74501 4.4468L10.129 3.48234C10.1667 3.38754 10.2219 3.30141 10.2916 3.22886C10.3612 3.1563 10.4439 3.09875 10.5349 3.05948C10.6259 3.02021 10.7235 3 10.822 3C10.9205 3 11.018 3.02021 11.109 3.05947Z" fill="#FEB800"/>
</svg>

<svg width="24" height="24" fill="none" xmlns="http://www.w3.org/2000/svg"><path d="M13.002 7.176c3.169 0 4.966 2.184 5.228 4.822h.08c.484 0 .964.098 1.412.29a3.68 3.68 0 0 1 1.197.831c.343.357.615.78.8 1.245.186.466.282.965.283 1.47a3.98 3.98 0 0 1-.283 1.47 3.853 3.853 0 0 1-.8 1.244c-.343.356-.75.638-1.198.83a3.559 3.559 0 0 1-1.411.29H7.694c-.484.002-.964-.097-1.411-.29a3.68 3.68 0 0 1-1.198-.83 3.854 3.854 0 0 1-.8-1.245 3.98 3.98 0 0 1 0-2.939c.185-.465.457-.888.8-1.245a3.68 3.68 0 0 1 1.197-.83 3.56 3.56 0 0 1 1.412-.291h.08c.263-2.656 2.06-4.822 5.228-4.822Z" fill="#3FD5FE"/><path d="M4.368 11.503c.07.175.076.37.018.549a.775.775 0 0 1-.333.425l-.091.047-.926.4a.723.723 0 0 1-.55.01.762.762 0 0 1-.408-.384.81.81 0 0 1-.047-.571.777.777 0 0 1 .339-.45l.092-.049.926-.399c.184-.079.39-.08.574 0 .184.08.33.23.406.422Zm6.487-5.034-.172.06c-1.784.657-3.062 2.09-3.615 3.983l-.07.26-.058.248-.206.04a4.546 4.546 0 0 0-1.67.744 4.25 4.25 0 0 1-.484-2.718 4.155 4.155 0 0 1 1.28-2.422 3.858 3.858 0 0 1 2.464-1.027 3.836 3.836 0 0 1 2.531.832Zm-7.915.033.106.036.926.4a.765.765 0 0 1 .393.397.811.811 0 0 1 .03.569.775.775 0 0 1-.35.438.724.724 0 0 1-.542.075L3.4 8.383l-.926-.4a.765.765 0 0 1-.391-.397.811.811 0 0 1-.03-.568.775.775 0 0 1 .348-.438.724.724 0 0 1 .541-.076l-.002-.002Zm3.815-3.11.046.095.383.965a.811.811 0 0 1 .007.571.77.77 0 0 1-.368.424.723.723 0 0 1-.546.049.755.755 0 0 1-.433-.351l-.046-.095-.383-.966a.811.811 0 0 1-.007-.57.77.77 0 0 1 .368-.424.723.723 0 0 1 .547-.05.755.755 0 0 1 .432.352Zm4.354-.333a.763.763 0 0 1 .383.371.81.81 0 0 1 .057.54l-.035.11-.383.966a.768.768 0 0 1-.38.409.722.722 0 0 1-.547.03.758.758 0 0 1-.42-.363.81.81 0 0 1-.073-.565l.034-.11.384-.965a.783.783 0 0 1 .406-.423.724.724 0 0 1 .574 0Z" fill="#FEB800"/></svg>
